assets/img/braze_icons/currency-rupee-circle.svg

<svg fill="none" height="24" viewBox="0 0 24 24" width="24" xmlns="http://www.w3.org/2000/svg"><path clip-rule="evenodd" d="m12 1c-6.07513 0-11 4.92487-11 11 0 6.0751 4.92487 11 11 11 6.0751 0 11-4.9249 11-11 0-6.07513-4.9249-11-11-11zm-4.5 5.5c0-.55228.44772-1 1-1h7c.5523 0 1 .44772 1 1s-.4477 1-1 1h-1.8407c.2805.4653.4703.97659.5753 1.5h1.2654c.5523 0 1 .44772 1 1 0 .5523-.4477 1-1 1h-1.2654c-.1485.7403-.4667 1.4564-.9713 2.0524-.5331.6297-1.2515 1.0965-2.1262 1.3132l3.4962 2.8605c.4274.3497.4904.9797.1407 1.4072-.3497.4274-.9798.4904-1.4072.1407l-5.49405-4.4951c-.01056-.0086-.02094-.0173-.03114-.0262-.10369-.0906-.18432-.1983-.24115-.3153-.06435-.1322-.10046-.2806-.10046-.4374v-.0012c.00002-.0334.00171-.0669.00509-.1003.02282-.2263.1211-.4304.26931-.5866.08052-.0851.17305-.1532.27277-.2037.13596-.0692.28993-.1082.45292-.1082h1.49991c.8223 0 1.3747-.312 1.7369-.7399.1828-.2159.3276-.4747.4288-.7601h-3.6657c-.55228 0-1-.4477-1-1 0-.55228.44772-1 1-1h3.6657c-.1012-.28539-.246-.54417-.4288-.76011-.3622-.42787-.9146-.73989-1.7369-.73989h-1.5c-.55228 0-1-.44772-1-1z" fill="#801ed7" fill-rule="evenodd"/></svg>

<svg width="24" height="24" viewBox="0 0 24 24" fill="none" xmlns="http://www.w3.org/2000/svg">
<path fill-rule="evenodd" clip-rule="evenodd" d="M12 1C5.92487 1 1 5.92487 1 12C1 18.0751 5.92487 23 12 23C18.0751 23 23 18.0751 23 12C23 5.92487 18.0751 1 12 1ZM7.5 6.5C7.5 5.94772 7.94772 5.5 8.5 5.5H15.5C16.0523 5.5 16.5 5.94772 16.5 6.5C16.5 7.05228 16.0523 7.5 15.5 7.5H13.6593C13.9398 7.9653 14.1296 8.47659 14.2346 9H15.5C16.0523 9 16.5 9.44772 16.5 10C16.5 10.5523 16.0523 11 15.5 11H14.2346C14.0861 11.7403 13.7679 12.4564 13.2633 13.0524C12.7302 13.6821 12.0118 14.1489 11.1371 14.3656L14.6333 17.2261C15.0607 17.5758 15.1237 18.2058 14.774 18.6333C14.4243 19.0607 13.7942 19.1237 13.3668 18.774L7.87275 14.2789C7.86219 14.2703 7.85181 14.2616 7.84161 14.2527C7.73792 14.1621 7.65729 14.0544 7.60046 13.9374C7.53611 13.8052 7.5 13.6568 7.5 13.5L7.5 13.4988C7.50002 13.4654 7.50171 13.4319 7.50509 13.3985C7.52791 13.1722 7.62619 12.9681 7.7744 12.8119C7.85492 12.7268 7.94745 12.6587 8.04717 12.6082C8.18313 12.539 8.3371 12.5 8.50009 12.5H10C10.8223 12.5 11.3747 12.188 11.7369 11.7601C11.9197 11.5442 12.0645 11.2854 12.1657 11H8.5C7.94772 11 7.5 10.5523 7.5 10C7.5 9.44772 7.94772 9 8.5 9H12.1657C12.0645 8.71461 11.9197 8.45583 11.7369 8.23989C11.3747 7.81202 10.8223 7.5 10 7.5H8.5C7.94772 7.5 7.5 7.05228 7.5 6.5Z" fill="#801ED7"/>
</svg>
